X: 20612
T: Alack and well a day
%R: air, waltz, jig
B: James Oswald "The Caledonian Pocket Companion" v.2 p.61 #2
Z: 2019 John Chambers <jc:trillian.mit.edu>
M: 6/8
L: 1/8
K: Em
"_Slow"e |\
{e}^d>^cB B>^c^d | e3 G3 | AcB {A}G>FE | E3 zz(e/f/) | {e}^d>^cB B>^c^d | e3 G3 | A=cB {B}A>GF | E3 zz :|
|: (E/F/) |\
TG>FG A>GA | B3 zzF | TG>FG TA>GA | B3 zzF | TG>FG A>Bc | B3 e3 | d>cB AGF | E3 zz(E/F/) |
G3 B3 | GE2 zzF | TG>FG AGA | B3 zzF | (GF)G (AB)c | B3 e3{fg}y| d>cB (AG)F | E3 zz :|
